X:2
T:Varsovienne GC 5-  (vr07427)
S:Hanny Christen. Bd.IV  Aargau, Basel I. S.337 (vr07427) orig. C,F
S:Repertoire der "Jourdan-Musig", Muttenz.  S.270-353
S:Ãœberliefert durch Herrn Mesmer, Mai 1941
%%MIDI program 21
R:Varsovienne
M:3/4
L:1/8
K:G %%MIDI gchordon
G>A |: "G"((3B^AB) .e2.d2 | !>!"D7"c4 A>B | ((3cBc) .f2.e2 | !>!"G"d4 B>c | ((3d^cd) .a2.g2 | !>!"C"e4 c>A | "D7"F>F .e2.F2 |1 !>!"G"G4 G>A :|2 !>!"G"G4B>B || 
"B7"B>c B>^A B>c | "Em"B>eB2B2 | "B7"B>fB2B2 | !>!"Em"g4f>e | "D7"d>e d>^c d>e | "G"d>gd2d2 | "D7"f>e d>e c>A | !>!"G"G4G>G || [K:C] 
"C"Ge cG ce | !>!"G7"d4 G>G | Gf dG df | !>!"C"e4G>G | Gg eG eg | !>!"F"f4e>d | "C".c(G ^FG) "G7"e>d | !>!"C"c4c>B || 
"Am"((3A^GA) .c2.A2 | ((3cBc) .e2.c2 | ((3e^de) .a2.e2 | !>!"Dm"f4 f>f | "E7"((3e^de).B2.e2 | "Am"c>B !>!A4 | "G7"z2 ((3G^FG) B>d | !>!"C"c4z2 |] 
% vr07427
% Aug 21, 2017

